X: 30585
T: One For Dan
R: reel
M: 4/4
K: Gmajor
Gdge dBed|Gdge dBed|c2 Ac BAGB|cBcd A2BA|
Gdge dBed|Gdge dBed|cdef gdBG|A2 F2G4:|
d2 fe d4|e2 f2 g3 g|f2d2 edc2|dcBd A3B|
c2 Ac BAGB|AGAB A2 GA|BGBc dcBA|GggG G4:|

